app/assets/images/payment_icons/bancoripley.svg

<svg xmlns="http://www.w3.org/2000/svg" role="img" viewBox="0 0 38 24" width="38" height="24" aria-labelledby="pi-bancoripley"><title id="pi-bancoripley">Banco Ripley</title><g clip-path="url(#clip0_3326_8134)"><path opacity="0.07" d="M35 0H3C1.3 0 0 1.3 0 3V21C0 22.7 1.4 24 3 24H35C36.7 24 38 22.7 38 21V3C38 1.3 36.6 0 35 0Z" fill="black"/><path d="M35 1C36.1 1 37 1.9 37 3V21C37 22.1 36.1 23 35 23H3C1.9 23 1 22.1 1 21V3C1 1.9 1.9 1 3 1H35Z" fill="#582982"/><path fill-rule="evenodd" clip-rule="evenodd" d="M10.1049 12.9704C10.0169 12.9704 9.93311 12.9803 9.85296 12.999C9.77228 13.0188 9.70355 13.0365 9.64683 13.0516C9.57499 13.0817 9.5073 13.113 9.44539 13.1437V16.2909C9.44591 16.3102 9.43078 16.3258 9.41154 16.3269H8.4709C8.45166 16.3264 8.43601 16.3102 8.43654 16.2909V12.4384C8.58958 12.3645 8.74782 12.3014 8.90974 12.2499C9.07787 12.1979 9.24862 12.1557 9.42142 12.1234C9.60831 12.088 9.81028 12.0703 10.0279 12.0703C10.2189 12.0703 10.3938 12.0864 10.5515 12.1192C10.7093 12.152 10.8477 12.1906 10.9669 12.2338C11.0955 12.2796 11.2137 12.329 11.3209 12.3837C11.336 12.3925 11.3433 12.4108 11.3381 12.4274L11.0888 13.2213C11.082 13.2437 11.0575 13.253 11.0393 13.241C10.9659 13.1947 10.8899 13.1536 10.8113 13.1177C10.7093 13.0755 10.6041 13.0412 10.4969 13.0146C10.3688 12.9839 10.2371 12.9688 10.1049 12.9704Z" fill="white"/><path fill-rule="evenodd" clip-rule="evenodd" d="M11.8809 12.2342H12.8215C12.8403 12.2342 12.8554 12.2503 12.8554 12.2701V16.2914C12.8559 16.3101 12.8413 16.3263 12.822 16.3268C12.822 16.3273 12.8215 16.3273 12.8215 16.3273H11.896C11.8679 16.3263 11.846 16.3034 11.8465 16.2752C11.8465 16.2752 11.8465 16.2752 11.8465 16.2747V12.2701C11.8465 12.2503 11.8611 12.2342 11.8809 12.2342ZM11.7305 11.0474C11.7305 10.8834 11.7893 10.7402 11.9085 10.6174C12.0272 10.4945 12.175 10.4331 12.3509 10.4331C12.5264 10.4331 12.6742 10.4945 12.7934 10.6174C12.9126 10.7402 12.9725 10.8839 12.9725 11.0474C12.9725 11.2108 12.9126 11.3545 12.7934 11.4773C12.6784 11.5981 12.5181 11.6647 12.3515 11.6611C12.175 11.6611 12.0272 11.6002 11.9085 11.4773C11.7893 11.3545 11.7305 11.2108 11.7305 11.0474Z" fill="white"/><path fill-rule="evenodd" clip-rule="evenodd" d="M15.4745 12.9504C15.386 12.9504 15.2981 12.9576 15.2101 12.9707C15.1221 12.9842 15.0441 12.9967 14.9774 13.0082C14.8946 13.0295 14.814 13.0514 14.7369 13.0732V15.4475C14.814 15.4688 14.8946 15.4875 14.9769 15.5042C15.0493 15.5266 15.1289 15.5427 15.2138 15.5531C15.2996 15.5651 15.386 15.5703 15.4745 15.5703C15.6484 15.5724 15.8212 15.5401 15.9826 15.4756C16.1351 15.4131 16.2658 15.3246 16.3746 15.2096C16.4835 15.095 16.567 14.9571 16.6265 14.7962C16.6881 14.6239 16.7183 14.4428 16.7161 14.2601C16.7161 14.0633 16.6859 13.8853 16.6269 13.7239C16.5718 13.5703 16.4861 13.4298 16.3746 13.3101C16.2642 13.195 16.1304 13.1044 15.9826 13.0446C15.8212 12.98 15.6484 12.9483 15.4745 12.9504ZM14.702 17.8618H13.7619C13.7427 17.8612 13.7271 17.8451 13.7275 17.8259V12.4428C13.7275 12.4283 13.7364 12.4147 13.7495 12.409C13.9176 12.3403 14.0893 12.2809 14.2632 12.2299C14.4511 12.1784 14.6416 12.1357 14.8343 12.1029C15.0383 12.0675 15.2512 12.0498 15.4745 12.0498C15.816 12.0498 16.1258 12.1071 16.4057 12.2216C16.6842 12.3366 16.926 12.4933 17.128 12.6922C17.3296 12.8931 17.4896 13.1326 17.5972 13.3965C17.7083 13.6667 17.7638 13.955 17.7638 14.2601C17.7655 14.5563 17.7091 14.8499 17.5972 15.1237C17.4896 15.3876 17.3305 15.627 17.128 15.828C16.9203 16.0305 16.675 16.1908 16.4057 16.2991C16.1258 16.4136 15.816 16.4708 15.4745 16.4708C15.386 16.4708 15.2981 16.4636 15.2101 16.45C15.1221 16.4365 15.0441 16.424 14.9774 16.4136C14.8973 16.3923 14.8171 16.3704 14.7369 16.348V17.8264C14.7375 17.8456 14.7218 17.8618 14.7026 17.8623" fill="white"/><path fill-rule="evenodd" clip-rule="evenodd" d="M18.5289 16.3284C18.5097 16.3279 18.4948 16.3118 18.4952 16.2925V11.4576L18.4922 10.6346C18.4922 10.6143 18.5084 10.5977 18.5272 10.5977H19.4699C19.4891 10.5977 19.5045 10.6138 19.5045 10.6346V16.292C19.5045 16.3118 19.4891 16.3274 19.4699 16.3279" fill="white"/><path fill-rule="evenodd" clip-rule="evenodd" d="M23.1755 13.892C23.134 13.6245 23.0251 13.4006 22.8497 13.2205C22.6823 13.0441 22.4483 12.9457 22.2052 12.9504C21.9516 12.9504 21.7352 13.0404 21.5568 13.2205C21.3788 13.4006 21.269 13.6245 21.2266 13.892H23.1755ZM23.7439 14.7515H21.2266C21.3106 14.9769 21.4527 15.1757 21.6385 15.3283C21.83 15.4896 22.109 15.5698 22.4763 15.5698C22.6176 15.5719 22.7588 15.5552 22.8961 15.5208C23.0054 15.4938 23.1121 15.4552 23.214 15.4063C23.3041 15.3636 23.3845 15.3168 23.4545 15.2658C23.4693 15.2549 23.4899 15.2574 23.5008 15.2726C23.5021 15.2741 23.5035 15.2757 23.5039 15.2778L23.8598 15.9508C23.8681 15.967 23.8638 15.9867 23.8493 15.9982C23.7313 16.0867 23.6045 16.1622 23.4707 16.2247C23.3198 16.2965 23.1619 16.3543 23.0006 16.3969C22.8038 16.448 22.6018 16.4729 22.3994 16.4708C22.0579 16.4708 21.7483 16.4141 21.4715 16.3027C21.2061 16.1981 20.9643 16.0409 20.7614 15.84C20.5629 15.6411 20.4085 15.4027 20.3075 15.1403C20.2008 14.8701 20.1475 14.5766 20.1475 14.2601C20.1475 13.9332 20.1982 13.6339 20.2996 13.3637C20.3936 13.1044 20.5393 12.8666 20.7264 12.6641C20.9092 12.4678 21.1317 12.3127 21.3792 12.2091C21.6289 12.1029 21.9048 12.0498 22.2052 12.0498C22.5056 12.0498 22.7807 12.1029 23.0321 12.2091C23.2831 12.3153 23.5 12.4673 23.6836 12.6641C23.8712 12.8666 24.0164 13.1044 24.1112 13.3637C24.2101 13.6297 24.2608 13.9228 24.2621 14.2439C24.2621 14.2544 24.2577 14.2642 24.2507 14.2715L23.7676 14.7416C23.7614 14.7478 23.7531 14.7515 23.7439 14.7515Z" fill="white"/><path fill-rule="evenodd" clip-rule="evenodd" d="M28.7713 15.9741C28.7717 16.2177 28.7219 16.4587 28.6239 16.682C28.5234 16.9111 28.3751 17.1162 28.1893 17.2838C27.9978 17.4587 27.766 17.5982 27.4945 17.7018C27.2234 17.8054 26.9107 17.8569 26.5592 17.8569C26.327 17.8569 26.1171 17.8309 25.93 17.7793C25.7682 17.7361 25.6099 17.6799 25.4568 17.6112C25.3108 17.5456 25.1726 17.4633 25.0454 17.3655L25.417 16.6612C25.424 16.6456 25.4433 16.6383 25.4595 16.6461C25.4612 16.6466 25.4621 16.6477 25.4634 16.6482C25.5491 16.7002 25.6453 16.7492 25.752 16.7929C25.8556 16.8366 25.9746 16.8746 26.1088 16.9079C26.2435 16.9402 26.3935 16.9569 26.5592 16.9569C26.8228 16.9569 27.0336 16.9106 27.1915 16.8174C27.3502 16.7247 27.4696 16.6206 27.5526 16.5061C27.6506 16.3749 27.7205 16.225 27.7621 16.0558V15.9741C27.6694 15.9902 27.5758 16.0042 27.4822 16.0157C27.3948 16.0261 27.3012 16.0355 27.2041 16.0438C27.1049 16.0522 27.0061 16.0558 26.909 16.0558C26.5771 16.0558 26.2846 16.0094 26.0318 15.9168C25.7778 15.8241 25.5631 15.6956 25.3873 15.5321C25.2124 15.3702 25.076 15.1719 24.9868 14.9507C24.895 14.7164 24.849 14.466 24.8517 14.2141V12.0814C24.8517 12.0611 24.8674 12.0444 24.8858 12.0444H25.8268C25.8451 12.0444 25.8609 12.0611 25.8609 12.0814V14.2141C25.8609 14.4816 25.9527 14.7055 26.1363 14.8851C26.32 15.0652 26.5771 15.1552 26.9081 15.1552C27.017 15.1552 27.1211 15.1485 27.2225 15.1349C27.3235 15.1214 27.4153 15.1068 27.4984 15.0902C27.5911 15.0735 27.6799 15.0542 27.7621 15.0329V12.0814C27.7621 12.0611 27.7774 12.0444 27.7962 12.0444H28.7376C28.7555 12.0444 28.7713 12.0611 28.7713 12.0814V15.9741Z" fill="white"/><path d="M28.739 19.4385H8.4375V21.0001H28.739V19.4385Z" fill="#D73941"/><path d="M28.7381 19.4385H18.8477V21.0001H28.7381V19.4385Z" fill="#E7A457"/><path d="M28.7399 19.4385H21.4521V21.0001H28.7399V19.4385Z" fill="#794887"/><path fill-rule="evenodd" clip-rule="evenodd" d="M9.7459 7.99363C9.92028 7.99621 10.0931 7.96393 10.2545 7.89887C10.4028 7.83953 10.5361 7.74898 10.647 7.63341C10.7553 7.51889 10.8391 7.38041 10.8989 7.21958C10.9583 7.05924 10.9879 6.87965 10.9879 6.68341C10.99 6.50068 10.9598 6.319 10.8989 6.14724C10.8437 5.99367 10.7579 5.85314 10.647 5.7339C10.5366 5.61837 10.4028 5.52777 10.2545 5.46791C10.0931 5.40389 9.92028 5.37162 9.7459 5.37368C9.65792 5.37368 9.56947 5.38098 9.48201 5.39449C9.39404 5.40857 9.31647 5.42055 9.2493 5.43149C9.16653 5.45335 9.0869 5.47469 9.00828 5.49655V7.87075C9.0869 7.89214 9.16653 7.9119 9.24983 7.92804C9.32167 7.9499 9.4013 7.96603 9.48564 7.97697C9.571 7.98842 9.65792 7.99363 9.7459 7.99363ZM9.00881 4.59649C9.0869 4.57463 9.16705 4.55276 9.24983 4.53042C9.32167 4.51428 9.4013 4.50073 9.48617 4.4898C9.57152 4.47887 9.65845 4.47314 9.74643 4.47314C10.0879 4.47314 10.3982 4.53042 10.6782 4.64546C10.9474 4.7532 11.1925 4.91302 11.3997 5.116C11.6012 5.31539 11.7578 5.54963 11.8692 5.81982C11.9806 6.09048 12.0369 6.37833 12.0369 6.68341C12.0384 6.97957 11.9817 7.27319 11.8692 7.54753C11.762 7.81142 11.6022 8.05086 11.3997 8.2513C11.1925 8.45432 10.9474 8.6141 10.6782 8.72188C10.3982 8.83693 10.0879 8.89417 9.74643 8.89417C9.52364 8.89417 9.30811 8.8744 9.09836 8.83693C8.90837 8.80309 8.72043 8.75936 8.53565 8.70523C8.35291 8.65783 8.17438 8.59796 8 8.52564V3.0359C8 3.01561 8.01456 3 8.03384 3H8.97444C8.99372 3.00048 9.00881 3.01614 9.00828 3.03485C9.00828 3.03537 9.00828 3.03537 9.00828 3.0359V4.59601L9.00881 4.59649Z" fill="white"/><path fill-rule="evenodd" clip-rule="evenodd" d="M24.9542 8.39683C24.9625 8.41244 24.9589 8.43173 24.9459 8.44318C24.8324 8.53116 24.7101 8.60715 24.581 8.6696C24.4337 8.73986 24.2806 8.79767 24.1229 8.8414C23.9521 8.89085 23.7554 8.91477 23.5331 8.91477C23.1911 8.91477 22.8809 8.85806 22.6013 8.74301C22.3322 8.63527 22.087 8.47545 21.8793 8.27295C21.6769 8.07203 21.5176 7.83254 21.4103 7.56866C21.2979 7.29484 21.2411 7.00127 21.2432 6.70506C21.2411 6.40886 21.2979 6.11528 21.4103 5.84147C21.5176 5.57754 21.6769 5.33757 21.8793 5.13717C22.087 4.9352 22.3322 4.77486 22.6013 4.66659C22.8809 4.55207 23.1916 4.49427 23.5331 4.49427C23.7267 4.49221 23.9199 4.5156 24.1073 4.56401C24.2785 4.61036 24.4259 4.66086 24.5498 4.71552C24.6788 4.78163 24.797 4.85138 24.9037 4.92685C24.9188 4.93778 24.9235 4.95754 24.9152 4.9742L24.5596 5.64833C24.5518 5.66447 24.5326 5.67124 24.517 5.66342C24.5154 5.66237 24.5138 5.66189 24.5123 5.66084C24.4399 5.61344 24.3644 5.57129 24.2863 5.53434C24.1895 5.49319 24.0891 5.46092 23.987 5.43648C23.8636 5.40731 23.7377 5.3938 23.6112 5.39533C23.4243 5.39533 23.251 5.43075 23.0912 5.50207C22.9345 5.57024 22.7924 5.66709 22.6716 5.78786C22.5524 5.90811 22.4577 6.0497 22.3926 6.20584C22.3249 6.36356 22.2906 6.53326 22.2911 6.70506C22.2927 7.04862 22.4296 7.37814 22.6716 7.62174C22.7903 7.74251 22.9303 7.83727 23.0912 7.90859C23.2552 7.97986 23.4321 8.0158 23.6112 8.01475C23.8564 8.01738 24.0984 7.96114 24.3176 7.8513C24.403 7.80863 24.48 7.76175 24.5503 7.71077C24.5648 7.69984 24.5857 7.70294 24.5966 7.7175C24.5976 7.71855 24.5987 7.72065 24.5997 7.72275L24.9547 8.39683H24.9542Z" fill="white"/><path fill-rule="evenodd" clip-rule="evenodd" d="M28.3036 6.70501C28.3036 6.50824 28.274 6.33019 28.2146 6.16884C28.1605 6.01685 28.0788 5.87679 27.9741 5.75497C27.8752 5.64202 27.7534 5.55147 27.6171 5.48951C27.4796 5.42654 27.3297 5.39423 27.1782 5.39528C27.0231 5.39528 26.8768 5.42654 26.7399 5.48951C26.603 5.55199 26.4817 5.64202 26.3828 5.75497C26.2818 5.87001 26.2017 6.00797 26.1423 6.16884C26.0809 6.3406 26.0507 6.52228 26.0533 6.70501C26.0533 6.90125 26.0824 7.08031 26.1423 7.24118C26.196 7.39265 26.2777 7.53266 26.3828 7.65448C26.5832 7.88457 26.8737 8.01575 27.1782 8.0147C27.3334 8.0147 27.4796 7.98295 27.6171 7.92047C27.7534 7.85855 27.8752 7.76795 27.9741 7.65501C28.0746 7.53996 28.1553 7.402 28.2146 7.24118C28.274 7.08031 28.3036 6.90125 28.3036 6.70501ZM25.0049 6.70501C25.0034 6.40881 25.0596 6.11523 25.1715 5.84142C25.2829 5.57123 25.4359 5.33647 25.6301 5.13707C25.8263 4.93668 26.0596 4.77686 26.3172 4.66654C26.5811 4.55202 26.868 4.49421 27.1782 4.49421C27.7628 4.48953 28.3245 4.72119 28.7347 5.13707C28.9309 5.33957 29.085 5.57906 29.1891 5.84089C29.2984 6.11571 29.3536 6.40933 29.3515 6.70501C29.3536 7.00069 29.2984 7.29426 29.1891 7.56913C29.085 7.83096 28.9309 8.06988 28.7347 8.2729C28.5379 8.47382 28.3031 8.63364 28.0439 8.74296C27.7701 8.85905 27.476 8.91734 27.1787 8.91524C26.5962 8.92149 26.0367 8.68935 25.6301 8.2729C25.4333 8.06988 25.2777 7.83096 25.1715 7.56913C25.0596 7.29479 25.0028 7.00117 25.0049 6.70501Z" fill="white"/><path fill-rule="evenodd" clip-rule="evenodd" d="M16.8125 8.67573V4.91579C16.8125 4.88405 16.8318 4.85593 16.8599 4.84552C17.0406 4.78046 17.2243 4.72318 17.4101 4.67425C17.6017 4.62532 17.8042 4.58369 18.0187 4.54827C18.2357 4.51237 18.4549 4.49467 18.6746 4.49414C19.0051 4.49414 19.2992 4.54101 19.5553 4.63367C19.812 4.72685 20.0259 4.85488 20.1998 5.01833C20.3721 5.18077 20.5074 5.3796 20.5954 5.59928C20.687 5.83352 20.7328 6.08341 20.7307 6.33532V8.67573C20.7318 8.7153 20.7005 8.74809 20.6615 8.74914H19.7917C19.7521 8.74809 19.7209 8.7153 19.7219 8.67573V6.33532C19.7219 6.06828 19.6303 5.84445 19.4465 5.66487C19.2628 5.48476 19.0056 5.39521 18.6746 5.39521C18.5663 5.39521 18.4617 5.40461 18.3602 5.42332C18.267 5.44156 18.1738 5.45979 18.0801 5.47698C18.0062 5.50142 17.9359 5.52591 17.8677 5.55087C17.8391 5.5618 17.8208 5.5894 17.8214 5.61957V8.67625C17.8224 8.71582 17.7912 8.74862 17.7516 8.74967H16.8818C16.8427 8.74862 16.8115 8.71582 16.8125 8.67625" fill="white"/><path fill-rule="evenodd" clip-rule="evenodd" d="M15.1528 7.86389C15.0695 7.88575 14.9789 7.90499 14.8811 7.92165C14.7983 7.9373 14.7035 7.95291 14.5979 7.96695C14.486 7.98051 14.373 7.98777 14.26 7.98724C13.9285 7.98724 13.6973 7.93363 13.5651 7.82747C13.4334 7.72073 13.3673 7.59738 13.3673 7.45527C13.3673 7.31316 13.4334 7.18875 13.5651 7.08202C13.6973 6.97581 13.9285 6.9222 14.26 6.9222C14.3793 6.9222 14.4901 6.9264 14.5937 6.93471C14.6973 6.94301 14.7931 6.95294 14.8811 6.96335C14.9789 6.9748 15.0695 6.98831 15.1528 7.00445V7.86389ZM16.1616 6.26736C16.1616 5.71142 16.0013 5.27206 15.6801 4.94984C15.3594 4.62815 14.8858 4.4668 14.26 4.4668C14.0274 4.4668 13.8212 4.48866 13.6427 4.53287C13.4818 4.57038 13.3251 4.62242 13.1731 4.68801C13.0461 4.74682 12.9248 4.81709 12.8109 4.89881C12.7952 4.90926 12.7921 4.92903 12.7999 4.94621L13.157 5.62239C13.1663 5.6401 13.1862 5.64636 13.2028 5.63695C13.2934 5.58702 13.3871 5.54329 13.4834 5.5063C13.5823 5.47351 13.6973 5.44281 13.829 5.41211C13.9706 5.38137 14.1148 5.36629 14.26 5.36681C14.5703 5.36681 14.7967 5.43293 14.9394 5.56411C15.0815 5.69476 15.1528 5.87487 15.1528 6.10391C15.068 6.08672 14.9826 6.07321 14.8962 6.0628C14.8009 6.05135 14.7051 6.04142 14.6093 6.03416C14.5 6.02686 14.3839 6.02271 14.26 6.02271C13.9186 6.02271 13.626 6.05913 13.3829 6.13255C13.1398 6.20645 12.9394 6.30588 12.7812 6.43133C12.6286 6.55 12.5089 6.70462 12.4324 6.88162C12.3554 7.06278 12.3174 7.25797 12.3194 7.45527C12.3194 7.65619 12.3569 7.8467 12.4324 8.02318C12.5068 8.20172 12.6229 8.3527 12.7812 8.47763C12.9394 8.60413 13.1398 8.70304 13.3829 8.77694C13.626 8.85083 13.9186 8.88783 14.26 8.88783C14.5136 8.88783 14.7514 8.87375 14.9743 8.84668C15.1637 8.82377 15.3522 8.7936 15.5395 8.7577L16.1616 8.1757V6.26736Z" fill="white"/></g><defs><clipPath id="pi-clip0_3326_8134"><rect width="38" height="24" fill="white"/></clipPath></defs></svg>

<svg xmlns="http://www.w3.org/2000/svg" width="38" height="24" aria-labelledby="pi-bancoripley"><g clip-path="url(#clip0_3326_8134)"><path d="M35 0H3C1.3 0 0 1.3 0 3v18c0 1.7 1.4 3 3 3h32c1.7 0 3-1.3 3-3V3c0-1.7-1.4-3-3-3Z" opacity=".07"/><path fill="#582982" d="M35 1c1.1 0 2 .9 2 2v18c0 1.1-.9 2-2 2H3c-1.1 0-2-.9-2-2V3c0-1.1.9-2 2-2h32Z"/><path fill="#fff" fill-rule="evenodd" d="M10.105 12.97c-.088 0-.172.01-.252.029-.08.02-.15.037-.206.053-.072.03-.14.061-.202.092v3.147c0 .02-.014.035-.033.036H8.47a.035.035 0 0 1-.034-.036v-3.853c.153-.074.31-.137.473-.188.168-.052.339-.094.511-.127a3.26 3.26 0 0 1 .607-.053c.19 0 .366.016.524.05a3.043 3.043 0 0 1 .769.264.038.038 0 0 1 .017.043l-.25.794c-.006.023-.03.032-.049.02a1.93 1.93 0 0 0-.228-.123 2.222 2.222 0 0 0-.314-.103 1.6 1.6 0 0 0-.392-.045ZM11.88 12.234h.941c.02 0 .034.016.034.036v4.021a.034.034 0 0 1-.033.036h-.926a.051.051 0 0 1-.05-.052V12.27c0-.02.015-.036.035-.036Zm-.15-1.187c0-.164.06-.307.178-.43a.59.59 0 0 1 .443-.184c.175 0 .323.062.442.184.12.123.18.267.18.43 0 .164-.06.307-.18.43a.592.592 0 0 1-.441.184.59.59 0 0 1-.444-.184.598.598 0 0 1-.178-.43ZM15.475 12.95c-.089 0-.177.008-.265.02l-.233.038a10.5 10.5 0 0 0-.24.065v2.374c.077.022.158.04.24.057a1.875 1.875 0 0 0 .498.066c.173.002.346-.03.508-.094.152-.063.283-.151.392-.266a1.19 1.19 0 0 0 .252-.414c.061-.172.091-.353.09-.536 0-.197-.031-.375-.09-.536a1.132 1.132 0 0 0-.644-.68 1.324 1.324 0 0 0-.508-.094Zm-.773 4.912h-.94a.036.036 0 0 1-.035-.036v-5.383c0-.015.01-.028.022-.034.169-.069.34-.128.514-.18.188-.05.379-.093.571-.126.204-.035.417-.053.64-.053.342 0 .652.057.932.172.278.115.52.271.722.47.202.201.362.44.47.704.11.27.166.559.166.864.002.296-.055.59-.167.864a2.118 2.118 0 0 1-1.191 1.175c-.28.115-.59.172-.931.172-.089 0-.177-.007-.265-.021l-.233-.036-.24-.066v1.478c0 .02-.015.036-.034.036M18.529 16.328a.035.035 0 0 1-.034-.035v-4.835l-.003-.823c0-.02.016-.037.035-.037h.943c.02 0 .035.016.035.037v5.657c0 .02-.016.035-.035.036M23.175 13.892a1.2 1.2 0 0 0-.325-.671.866.866 0 0 0-.645-.27.88.88 0 0 0-.648.27c-.178.18-.288.403-.33.671h1.948Zm.569.86h-2.517c.084.225.226.424.412.576.191.162.47.242.837.242a1.629 1.629 0 0 0 .738-.164c.09-.042.17-.09.24-.14a.033.033 0 0 1 .047.007l.003.005.356.673a.038.038 0 0 1-.01.047 2.138 2.138 0 0 1-.38.227c-.15.072-.308.13-.47.172a2.297 2.297 0 0 1-.6.074c-.342 0-.652-.057-.928-.168a2.015 2.015 0 0 1-1.164-1.162 2.376 2.376 0 0 1-.16-.88c0-.328.05-.627.152-.897.094-.26.24-.497.426-.7.183-.196.406-.351.653-.455.25-.106.526-.16.826-.16.3 0 .576.054.827.16.251.106.468.258.652.455.187.203.332.44.427.7.1.266.15.559.151.88a.04.04 0 0 1-.011.027l-.483.47a.033.033 0 0 1-.024.01ZM28.771 15.974a1.753 1.753 0 0 1-.582 1.31 2.159 2.159 0 0 1-.695.418 2.613 2.613 0 0 1-.935.155c-.232 0-.442-.026-.629-.078-.162-.043-.32-.1-.473-.168a2.06 2.06 0 0 1-.412-.245l.372-.705a.032.032 0 0 1 .042-.015l.004.002c.086.052.182.101.289.145.104.044.223.082.357.115.134.032.284.049.45.049.264 0 .475-.046.633-.14a1.156 1.156 0 0 0 .57-.761v-.082a5.701 5.701 0 0 1-.853.082c-.332 0-.624-.047-.877-.14a1.879 1.879 0 0 1-.645-.384 1.614 1.614 0 0 1-.4-.581 1.963 1.963 0 0 1-.135-.737v-2.133c0-.02.015-.037.034-.037h.94c.02 0 .035.017.035.037v2.133a.9.9 0 0 0 .275.671c.184.18.441.27.772.27.109 0 .213-.006.314-.02a4.388 4.388 0 0 0 .54-.102V12.08c0-.02.015-.037.034-.037h.942c.018 0 .033.017.033.037v3.893Z" clip-rule="evenodd"/><path fill="#D73941" d="M28.739 19.439H8.437V21H28.74V19.44Z"/><path fill="#E7A457" d="M28.738 19.439h-9.89V21h9.89V19.44Z"/><path fill="#794887" d="M28.74 19.439h-7.288V21h7.288V19.44Z"/><path fill="#fff" fill-rule="evenodd" d="M9.746 7.994c.174.002.347-.03.508-.095a1.12 1.12 0 0 0 .645-.68c.06-.16.089-.34.089-.536a1.552 1.552 0 0 0-.09-.536 1.125 1.125 0 0 0-.644-.68 1.337 1.337 0 0 0-.508-.093c-.088 0-.177.007-.264.02-.088.015-.166.027-.233.037l-.24.066V7.87c.078.021.158.04.24.057.073.022.152.038.237.049.085.011.172.017.26.017Zm-.737-3.398.24-.066c.073-.016.152-.03.237-.04a2.429 2.429 0 0 1 1.192.156A2.11 2.11 0 0 1 11.87 5.82c.112.27.168.558.168.863.001.297-.055.59-.168.865a2.105 2.105 0 0 1-.47.703 2.198 2.198 0 0 1-.72.47c-.28.116-.591.173-.933.173-.222 0-.438-.02-.648-.057a5.32 5.32 0 0 1-.562-.132A4.053 4.053 0 0 1 8 8.525v-5.49c0-.02.015-.035.034-.035h.94c.02 0 .035.016.034.035v1.561ZM24.954 8.397a.038.038 0 0 1-.008.046 2.06 2.06 0 0 1-.365.227c-.147.07-.3.128-.458.171-.17.05-.368.074-.59.074-.342 0-.652-.057-.932-.172a2.114 2.114 0 0 1-1.191-1.174 2.232 2.232 0 0 1-.167-.864c-.002-.296.055-.59.167-.864a2.108 2.108 0 0 1 1.191-1.174c.28-.115.59-.173.932-.173.194-.002.387.022.574.07.172.046.319.097.443.152.129.066.247.135.354.21.015.012.02.032.011.048l-.355.674a.032.032 0 0 1-.043.015l-.005-.002a1.88 1.88 0 0 0-.226-.127 1.889 1.889 0 0 0-.299-.098 1.55 1.55 0 0 0-.376-.04c-.187 0-.36.035-.52.106a1.309 1.309 0 0 0-.8 1.203c.002.344.139.673.38.917.12.12.26.215.42.287.164.07.341.107.52.106a1.54 1.54 0 0 0 .707-.164c.085-.042.162-.09.232-.14a.033.033 0 0 1 .05.012l.355.674ZM28.304 6.705c0-.197-.03-.375-.09-.536a1.308 1.308 0 0 0-.24-.414 1.055 1.055 0 0 0-1.234-.265 1.057 1.057 0 0 0-.357.265 1.305 1.305 0 0 0-.24.414 1.529 1.529 0 0 0-.09.536c0 .196.03.375.09.536.053.152.135.292.24.413.2.23.49.362.795.36a1.049 1.049 0 0 0 .796-.359c.1-.115.181-.253.24-.414.06-.16.09-.34.09-.536Zm-3.3 0a2.252 2.252 0 0 1 .626-1.568 2.141 2.141 0 0 1 1.548-.643 2.162 2.162 0 0 1 1.557.643c.196.203.35.442.454.704.11.275.165.568.163.864.002.296-.054.59-.163.864-.104.262-.258.5-.454.704-.197.2-.432.36-.691.47a2.175 2.175 0 0 1-.865.172 2.132 2.132 0 0 1-2.007-1.346 2.246 2.246 0 0 1-.167-.864ZM16.813 8.676v-3.76c0-.032.019-.06.047-.07.18-.066.364-.123.55-.172.192-.049.394-.09.609-.126.217-.036.436-.053.656-.054.33 0 .624.047.88.14.257.093.47.22.645.384.172.163.307.362.395.581.092.235.138.484.136.736v2.34a.071.071 0 0 1-.07.074h-.87a.072.072 0 0 1-.07-.073v-2.34a.9.9 0 0 0-.274-.671c-.184-.18-.441-.27-.772-.27-.109 0-.213.01-.315.028-.093.019-.186.037-.28.054a7.13 7.13 0 0 0-.212.074.072.072 0 0 0-.047.069v3.056a.072.072 0 0 1-.07.074h-.87a.072.072 0 0 1-.069-.074M15.153 7.864a5.265 5.265 0 0 1-.555.103c-.112.014-.225.02-.338.02-.332 0-.563-.053-.695-.16-.132-.106-.198-.23-.198-.372s.066-.266.198-.373c.132-.106.364-.16.695-.16.12 0 .23.004.334.013.103.008.2.018.287.028.098.012.188.025.272.041v.86Zm1.009-1.597c0-.556-.16-.995-.482-1.317-.32-.322-.794-.483-1.42-.483a2.584 2.584 0 0 0-1.087.221c-.127.059-.248.13-.362.21-.016.011-.019.031-.011.048l.357.676c.01.018.03.024.046.015.09-.05.184-.094.28-.13.1-.033.214-.064.346-.095.142-.03.286-.046.431-.045.31 0 .537.066.68.197.142.13.213.31.213.54a3.241 3.241 0 0 0-.257-.041 5.233 5.233 0 0 0-.636-.04 3.06 3.06 0 0 0-.877.11 1.802 1.802 0 0 0-.602.298 1.146 1.146 0 0 0-.349.45 1.428 1.428 0 0 0-.113.574c0 .201.038.392.113.568.075.179.19.33.35.455.157.126.358.225.6.299.244.074.537.11.878.11.254 0 .491-.013.714-.04.19-.023.378-.053.566-.09l.622-.581V6.267Z" clip-rule="evenodd"/></g></svg>
